X:1
T: Clydeside Lassies
C:
R:Reel
Q: 232
K:F
M:4/4
L:1/8
cB|:AF cF dF cF|AF cF AB cB|AF cF dF cF|BA GA Bc dB|
AF cF dF cF|AF cF AB cB|AF cF dF cF|BA GA Bc de|
fg ag f2 cf|gf ga ba ga|fg ag fc Ac|BA FA Bc de|
fg ag f2 cf|gf ga ba ga|fg af ge fc|BA GA Bc dB:|
